Setup/v9/Assets/Themes/Kobe - Light/ActualSize.svg

<svg width="20" height="20" viewBox="0 0 20 20" fill="none" xmlns="http://www.w3.org/2000/svg">
<g clip-path="url(#clip0_805_673)">
<path fill-rule="evenodd" clip-rule="evenodd" d="M16.5 8.75C16.5 13.0302 13.0302 16.5 8.75 16.5C4.46979 16.5 1 13.0302 1 8.75C1 4.46979 4.46979 1 8.75 1C13.0302 1 16.5 4.46979 16.5 8.75ZM14.5814 15.2737C13.0336 16.6582 10.9901 17.5 8.75 17.5C3.91751 17.5 0 13.5825 0 8.75C0 3.91751 3.91751 0 8.75 0C13.5825 0 17.5 3.91751 17.5 8.75C17.5 10.9901 16.6582 13.0336 15.2737 14.5814C15.3019 14.5999 15.3287 14.6216 15.3536 14.6464L19.5962 18.8891C19.7915 19.0843 19.7915 19.4009 19.5962 19.5962C19.4009 19.7915 19.0843 19.7915 18.8891 19.5962L14.6464 15.3536C14.6216 15.3287 14.5999 15.3019 14.5814 15.2737Z" fill="black"/>
<path fill-rule="evenodd" clip-rule="evenodd" d="M5.75 4.25C4.92157 4.25 4.25 4.92157 4.25 5.75V6.75C4.25 7.02614 4.47386 7.25 4.75 7.25C5.02614 7.25 5.25 7.02614 5.25 6.75V5.75C5.25 5.47386 5.47386 5.25 5.75 5.25H6.75C7.02614 5.25 7.25 5.02614 7.25 4.75C7.25 4.47386 7.02614 4.25 6.75 4.25H5.75ZM4.25 11.75C4.25 12.5784 4.92157 13.25 5.75 13.25H6.75C7.02614 13.25 7.25 13.0261 7.25 12.75C7.25 12.4739 7.02614 12.25 6.75 12.25H5.75C5.47386 12.25 5.25 12.0261 5.25 11.75V10.75C5.25 10.4739 5.02614 10.25 4.75 10.25C4.47386 10.25 4.25 10.4739 4.25 10.75V11.75ZM13.25 11.75C13.25 12.5784 12.5784 13.25 11.75 13.25H10.75C10.4739 13.25 10.25 13.0261 10.25 12.75C10.25 12.4739 10.4739 12.25 10.75 12.25H11.75C12.0261 12.25 12.25 12.0261 12.25 11.75V10.75C12.25 10.4739 12.4739 10.25 12.75 10.25C13.0261 10.25 13.25 10.4739 13.25 10.75V11.75ZM11.75 4.25C12.5784 4.25 13.25 4.92157 13.25 5.75V6.75C13.25 7.02614 13.0261 7.25 12.75 7.25C12.4739 7.25 12.25 7.02614 12.25 6.75V5.75C12.25 5.47386 12.0261 5.25 11.75 5.25H10.75C10.4739 5.25 10.25 5.02614 10.25 4.75C10.25 4.47386 10.4739 4.25 10.75 4.25H11.75Z" fill="black"/>
</g>
<defs>
<clipPath id="clip0_805_673">
<rect width="20" height="20" fill="white"/>
</clipPath>
</defs>
</svg>

<svg xmlns="http://www.w3.org/2000/svg" width="20" height="20" fill="none"><g fill="#000" fill-rule="evenodd" clip-path="url(#a)" clip-rule="evenodd"><path d="M16.5 8.75a7.75 7.75 0 1 1-15.5 0 7.75 7.75 0 0 1 15.5 0Zm-1.919 6.524a8.75 8.75 0 1 1 .692-.692c.029.018.056.04.08.064l4.243 4.243a.5.5 0 1 1-.707.707l-4.243-4.242a.509.509 0 0 1-.065-.08Z"/><path d="M5.75 4.25a1.5 1.5 0 0 0-1.5 1.5v1a.5.5 0 0 0 1 0v-1a.5.5 0 0 1 .5-.5h1a.5.5 0 0 0 0-1h-1Zm-1.5 7.5a1.5 1.5 0 0 0 1.5 1.5h1a.5.5 0 0 0 0-1h-1a.5.5 0 0 1-.5-.5v-1a.5.5 0 0 0-1 0v1Zm9 0a1.5 1.5 0 0 1-1.5 1.5h-1a.5.5 0 0 1 0-1h1a.5.5 0 0 0 .5-.5v-1a.5.5 0 0 1 1 0v1Zm-1.5-7.5a1.5 1.5 0 0 1 1.5 1.5v1a.5.5 0 0 1-1 0v-1a.5.5 0 0 0-.5-.5h-1a.5.5 0 0 1 0-1h1Z"/></g><defs><clipPath id="a"><path fill="#000" d="M0 0h20v20H0z"/></clipPath></defs></svg>
